images/mongodb.svg

<svg width="142" height="40" viewBox="0 0 142 40" fill="none" xmlns="http://www.w3.org/2000/svg">
<path d="M129.298 16.9863C129.187 17.0137 129.048 17.2603 129.048 17.4247C129.02 18.3836 128.993 20.9041 128.993 22.6302C128.993 22.685 129.076 22.7672 129.131 22.7672C129.492 22.7945 130.352 22.8219 131.1 22.8219C132.127 22.8219 132.737 22.685 133.07 22.548C133.929 22.1096 134.345 21.1781 134.345 20.1644C134.345 17.863 132.709 16.9589 130.268 16.9589C130.13 16.9041 129.658 16.9041 129.298 16.9863ZM135.51 27.6439C135.51 25.2877 133.763 23.9726 130.573 23.9726C130.435 23.9726 129.409 23.9452 129.187 24C129.104 24.0274 129.02 24.0822 129.02 24.137C129.02 25.8356 128.993 28.5206 129.076 29.5617C129.131 30.0274 129.464 30.6576 129.88 30.8493C130.324 31.0959 131.295 31.1233 131.988 31.1233C133.846 31.1233 135.51 30.0822 135.51 27.6439ZM124.361 15.6713C124.611 15.6713 125.332 15.7535 127.19 15.7535C128.937 15.7535 130.352 15.6987 132.071 15.6987C134.179 15.6987 137.063 16.4384 137.063 19.5343C137.063 21.0685 135.982 22.274 134.567 22.8767C134.484 22.9041 134.484 22.9589 134.567 22.9589C136.592 23.4521 138.367 24.685 138.367 27.0411C138.367 29.3151 136.925 30.7945 134.817 31.6987C133.541 32.2466 131.96 32.4384 130.324 32.4384C129.104 32.4384 125.803 32.3014 123.945 32.3562C123.751 32.274 124.111 31.4247 124.278 31.2877C124.722 31.2603 125.054 31.2329 125.498 31.0959C126.136 30.9315 126.219 30.7398 126.33 29.7535C126.386 28.9315 126.386 25.9726 126.386 23.863C126.386 20.9863 126.413 19.0137 126.386 18.0822C126.358 17.3425 126.108 17.0959 125.554 16.9589C125.138 16.8767 124.472 16.7946 123.917 16.7124C123.806 16.5754 124.222 15.7535 124.361 15.6713ZM110.466 30.4932C111.048 30.9589 112.186 31.1233 113.184 31.1233C114.488 31.1233 115.791 30.8767 117.039 29.7535C118.315 28.6028 119.202 26.8493 119.202 24.0274C119.202 21.3425 118.176 19.1507 116.041 17.863C114.848 17.1233 113.295 16.8219 111.52 16.8219C110.993 16.8219 110.494 16.8493 110.161 16.9863C110.078 17.0411 109.911 17.2603 109.911 17.3699C109.856 17.8356 109.856 21.5069 109.856 23.6713C109.856 25.8904 109.856 28.9863 109.911 29.3425C109.939 29.6987 110.105 30.2466 110.466 30.4932ZM104.975 15.6713C105.446 15.6713 107.193 15.7535 108.025 15.7535C109.551 15.7535 110.632 15.6713 113.489 15.6713C115.902 15.6713 117.927 16.3014 119.369 17.5343C121.116 19.0411 122.059 21.0959 122.059 23.6439C122.059 27.2329 120.395 29.3151 118.731 30.4932C117.067 31.6987 114.904 32.411 111.797 32.411C110.161 32.411 107.332 32.3562 105.002 32.3288H104.975C104.864 32.1096 105.169 31.2877 105.363 31.2603C106.001 31.1781 106.167 31.1781 106.472 31.0411C106.972 30.8493 107.082 30.5754 107.138 29.6987C107.221 28.0548 107.193 26.0822 107.193 23.8356C107.193 22.2466 107.221 19.1233 107.166 18.1096C107.082 17.2877 106.722 17.0685 106.001 16.9315C105.64 16.8493 105.169 16.7672 104.475 16.685C104.42 16.548 104.864 15.8083 104.975 15.6713Z" fill="#8E714E"/>
<path d="M75.798 31.4247C75.1879 31.3425 74.7719 31.2603 74.2172 31.0137C74.134 30.9589 74.023 30.7397 74.023 30.6302C73.9676 29.8082 73.9676 27.4247 73.9676 25.8082C73.9676 24.5206 73.7457 23.3973 73.191 22.6028C72.5531 21.6986 71.6102 21.1781 70.3898 21.1781C69.3359 21.1781 67.8938 21.8904 66.7289 22.9041C66.7012 22.9315 66.507 23.0959 66.5348 22.8219C66.5348 22.548 66.5902 22.0274 66.618 21.6712C66.6457 21.3425 66.4516 21.1781 66.4516 21.1781C65.675 21.5617 63.5117 22.0548 62.7074 22.137C62.125 22.2466 61.9863 22.7945 62.5965 22.9863H62.6242C63.2621 23.1781 63.7059 23.3973 64.0387 23.6165C64.2883 23.8082 64.2605 24.0822 64.2605 24.274C64.2883 26.0548 64.2883 28.7945 64.2051 30.3014C64.1773 30.9041 64.0109 31.1233 63.5672 31.2055L63.6227 31.1781C63.2898 31.2603 63.0125 31.3151 62.5965 31.3699C62.4578 31.5069 62.4578 32.274 62.5965 32.4384C62.8738 32.4384 64.2605 32.3562 65.4254 32.3562C67.0063 32.3562 67.8383 32.4384 68.2543 32.4384C68.4207 32.2466 68.4762 31.5343 68.3652 31.3699C67.8938 31.3425 67.5609 31.2877 67.2559 31.2055C66.8121 31.1233 66.7012 30.9041 66.6734 30.3836C66.618 29.1233 66.618 26.4658 66.618 24.6302C66.618 24.137 66.7566 23.8904 66.8953 23.7534C67.45 23.2877 68.3375 22.9315 69.1418 22.9315C69.9184 22.9315 70.4176 23.1781 70.8059 23.4795C71.3328 23.9178 71.4992 24.5206 71.5824 24.9863C71.6934 26 71.6656 28.0274 71.6656 29.8082C71.6656 30.7671 71.5824 30.9863 71.2219 31.1233C71.0555 31.2055 70.6117 31.2877 70.1125 31.3425C69.9461 31.5069 70.0016 32.2466 70.1125 32.411C70.8059 32.411 71.6379 32.3288 72.8305 32.3288C74.3281 32.3288 75.2988 32.411 75.6871 32.411C75.8535 32.3014 75.909 31.6165 75.798 31.4247ZM82.482 22.3288C81.2063 22.3288 80.402 23.3151 80.402 24.8219C80.402 26.3836 81.0953 28.1644 83.0922 28.1644C83.425 28.1644 84.0629 28.0274 84.3402 27.6986C84.8117 27.2603 85.1168 26.411 85.1168 25.5069C85.1168 23.5069 84.1184 22.3288 82.482 22.3288ZM82.3156 32.8493C81.8441 32.8493 81.4836 32.9863 81.2895 33.1233C80.2633 33.7534 79.8195 34.3836 79.8195 35.1233C79.8195 35.8082 80.0969 36.3562 80.6516 36.8493C81.3449 37.4521 82.3156 37.726 83.5359 37.726C86.0043 37.726 87.0859 36.411 87.0859 35.1233C87.0859 34.2192 86.6145 33.6165 85.6992 33.2877C85.0059 32.9863 83.7855 32.8493 82.3156 32.8493ZM82.482 39.0411C81.0121 39.0411 79.9582 38.7397 79.043 38.0274C78.1555 37.3699 77.7672 36.3562 77.7672 35.6712C77.7672 35.4795 77.8227 34.9589 78.2387 34.4932C78.516 34.2192 79.0707 33.6712 80.4574 32.7397C80.5129 32.7123 80.5406 32.6849 80.5406 32.6575C80.5406 32.6028 80.4852 32.5754 80.4574 32.548C79.3203 32.1096 78.9875 31.4247 78.8766 31.0411V30.9589C78.8488 30.8219 78.7934 30.6849 79.0152 30.5206C79.1816 30.411 79.4313 30.2466 79.6809 30.0822C80.0969 29.8356 80.5129 29.5891 80.7902 29.3699C80.8457 29.3151 80.8457 29.2877 80.8457 29.2329C80.8457 29.1781 80.7902 29.1507 80.7625 29.1233C79.0707 28.5754 78.2387 27.3425 78.2387 25.4795C78.2387 24.274 78.7934 23.1781 79.7918 22.4658C80.4574 21.9452 82.1492 21.2877 83.2586 21.2877H83.3418C84.4789 21.3151 85.0891 21.5617 86.0043 21.863C86.4758 22.0274 86.9473 22.1096 87.5852 22.1096C88.5281 22.1096 88.9441 21.8356 89.277 21.4795C89.3047 21.5343 89.3602 21.6439 89.3602 21.9452C89.3879 22.2466 89.277 22.7123 89.0551 23.0411C88.8609 23.3151 88.4172 23.5069 88.0012 23.5069H87.8902C87.4465 23.4521 87.2523 23.4247 87.2523 23.4247L87.1691 23.4795C87.1414 23.5343 87.1691 23.5617 87.1969 23.6439L87.2246 23.6986C87.2801 23.9178 87.3633 24.548 87.3633 24.7123C87.3633 26.6576 86.559 27.5343 85.727 28.1644C84.8949 28.7671 83.9797 29.1507 82.898 29.2329C82.8703 29.2329 82.7871 29.2329 82.5652 29.2603C82.4543 29.2603 82.2879 29.2877 82.2602 29.2877H82.2324C82.0383 29.3425 81.5668 29.5617 81.5668 29.9726C81.5668 30.3288 81.7887 30.7671 82.8148 30.8219C83.0367 30.8493 83.2586 30.8493 83.4805 30.8767C84.8672 30.9589 86.559 31.0959 87.3633 31.3425C88.4727 31.7534 89.166 32.7123 89.166 33.8904C89.166 35.6439 87.8902 37.2877 85.7547 38.3288C84.6453 38.7945 83.6191 39.0411 82.482 39.0411ZM96.2383 22.4384C95.7391 22.4384 95.2676 22.548 94.9348 22.7945C93.9918 23.3699 93.5203 24.5206 93.5203 26.1644C93.5203 29.2877 95.1012 31.4795 97.3754 31.4795C98.041 31.4795 98.568 31.2877 99.0395 30.9041C99.7328 30.3288 100.093 29.1781 100.093 27.5891C100.093 24.5206 98.5125 22.4384 96.2383 22.4384ZM96.6543 32.6302C92.5496 32.6302 91.0797 29.6439 91.0797 26.8767C91.0797 24.9315 91.884 23.4247 93.4649 22.3562C94.602 21.6712 95.9609 21.2877 97.1535 21.2877C100.288 21.2877 102.479 23.5069 102.479 26.6849C102.479 28.8493 101.619 30.5754 99.9547 31.6165C99.1781 32.137 97.7914 32.6302 96.6543 32.6302ZM53.6938 22.4384C53.1945 22.4384 52.723 22.548 52.3902 22.7945C51.4473 23.3699 50.9758 24.5206 50.9758 26.1644C50.9758 29.2877 52.5566 31.4795 54.8309 31.4795C55.4965 31.4795 56.0234 31.2877 56.4949 30.9041C57.1883 30.3288 57.5488 29.1781 57.5488 27.5891C57.5488 24.5206 55.9957 22.4384 53.6938 22.4384ZM54.1375 32.6302C50.0328 32.6302 48.5629 29.6439 48.5629 26.8767C48.5629 24.9315 49.3672 23.4247 50.948 22.3562C52.0852 21.6712 53.4441 21.2877 54.6367 21.2877C57.7707 21.2877 59.9617 23.5069 59.9617 26.6849C59.9617 28.8493 59.102 30.5754 57.4379 31.6165C56.6613 32.137 55.2746 32.6302 54.1375 32.6302ZM26.5695 32.3836C26.5141 32.3014 26.4863 32.1096 26.4863 31.8356C26.4863 31.6439 26.5418 31.5343 26.5695 31.4795C27.0688 31.3973 27.3461 31.3425 27.6234 31.2603C28.0949 31.1507 28.2891 30.8767 28.3168 30.274C28.4 28.8493 28.4 26.137 28.3723 24.2466V24.1918C28.3723 23.9726 28.3723 23.726 28.0949 23.5343C27.7066 23.2877 27.2629 23.0685 26.6527 22.9041C26.4309 22.8219 26.2922 22.7123 26.3199 22.5754C26.3199 22.4384 26.4586 22.274 26.7914 22.2192C27.5957 22.137 29.648 21.6439 30.4801 21.2877C30.5355 21.3425 30.591 21.4795 30.591 21.6712L30.5633 21.9452C30.5355 22.2192 30.5078 22.5206 30.5078 22.8219C30.5078 22.9041 30.591 22.9863 30.702 22.9863C30.7574 22.9863 30.7852 22.9589 30.8406 22.9315C32.3938 21.7534 33.7805 21.3151 34.5016 21.3151C35.6941 21.3151 36.6094 21.863 37.3027 23.0137C37.3582 23.0959 37.3859 23.0959 37.4691 23.0959C37.5246 23.0959 37.5801 23.0685 37.6078 23.0137C39.0223 21.9452 40.4645 21.2877 41.4074 21.2877C43.6539 21.2877 44.9852 22.9315 44.9852 25.726C44.9852 26.5206 44.9852 27.5343 44.9574 28.4658C44.9574 29.2877 44.9297 30.0548 44.9297 30.6028C44.9297 30.7123 45.0961 31.0959 45.3734 31.1781C45.7063 31.3425 46.1777 31.4247 46.7602 31.5069H46.7879C46.8434 31.6712 46.7324 32.3014 46.6492 32.411C46.5105 32.411 46.2887 32.411 46.0391 32.3836C45.5676 32.3562 44.9297 32.3288 44.2086 32.3288C42.7109 32.3288 41.9344 32.3562 41.1855 32.411C41.1301 32.2192 41.1023 31.6439 41.1855 31.5069C41.6293 31.4247 41.8234 31.3699 42.1008 31.2877C42.5723 31.1507 42.7109 30.9315 42.7387 30.3014C42.7387 29.8356 42.8219 26 42.6832 25.0685C42.5445 24.1096 41.8234 22.9863 40.2148 22.9863C39.6047 22.9863 38.6617 23.2329 37.7465 23.9178C37.691 23.9726 37.6633 24.0822 37.6633 24.1644V24.1918C37.7465 24.6849 37.7465 25.2603 37.7465 26.137V27.6986C37.7465 28.7671 37.7188 29.7808 37.7465 30.5206C37.7465 31.0411 38.0516 31.1507 38.3289 31.2603C38.4676 31.2877 38.5785 31.3151 38.6895 31.3425C38.9113 31.3973 39.1332 31.4247 39.466 31.5069C39.5215 31.5891 39.5215 31.9178 39.4383 32.1644C39.4105 32.3014 39.3551 32.3836 39.3551 32.411C38.523 32.3836 37.691 32.3562 36.4707 32.3562C36.1102 32.3562 35.4723 32.3836 34.9453 32.3836C34.5016 32.3836 34.1133 32.411 33.8637 32.411C33.8359 32.3562 33.7805 32.1918 33.7805 31.9452C33.7805 31.726 33.8359 31.5617 33.8637 31.5069C33.9746 31.4795 34.0855 31.4521 34.1965 31.4521C34.4738 31.3973 34.7234 31.3699 34.973 31.3151C35.3891 31.2055 35.5277 30.9863 35.5555 30.4658C35.6387 29.2877 35.6941 25.863 35.5277 25.0137C35.2504 23.6439 34.4461 22.9315 33.1703 22.9315C32.4215 22.9315 31.4785 23.2877 30.702 23.863C30.591 23.9452 30.4801 24.1918 30.4801 24.411V25.8082C30.4801 27.5343 30.4801 29.6712 30.5078 30.6028C30.5355 30.8767 30.6188 31.2329 31.1734 31.3425C31.2844 31.3699 31.4785 31.4247 31.7281 31.4247L32.1719 31.5069C32.2273 31.6439 32.1996 32.2192 32.0887 32.411C31.8391 32.411 31.5617 32.3836 31.2289 32.3836C30.7297 32.3562 30.0641 32.3288 29.343 32.3288C28.5109 32.3288 27.9008 32.3562 27.4016 32.3836C27.1242 32.3836 26.8469 32.3836 26.5695 32.3836Z" fill="#442D22"/>
<path d="M13.8672 38.1096L12.8687 37.7808C12.8687 37.7808 12.9797 32.7945 11.1769 32.4383C9.98436 31.0685 11.3711 -26.1644 15.6976 32.2466C15.6976 32.2466 14.2 32.9863 13.9504 34.2466C13.673 35.4794 13.8672 38.1096 13.8672 38.1096Z" fill="white"/>
<path d="M13.8672 38.1096L12.8687 37.7808C12.8687 37.7808 12.9797 32.7945 11.1769 32.4383C9.98436 31.0685 11.3711 -26.1644 15.6976 32.2466C15.6976 32.2466 14.2 32.9863 13.9504 34.2466C13.673 35.4794 13.8672 38.1096 13.8672 38.1096Z" fill="#A6A385"/>
<path d="M14.3942 33.2878C14.3942 33.2878 23.0473 27.6713 21.0227 15.9727C19.0813 7.47956 14.4496 4.68504 13.9504 3.61655C13.3957 2.84942 12.8688 1.50696 12.8688 1.50696L13.2293 25.1508C13.2571 25.2056 12.5082 32.4111 14.3942 33.2878Z" fill="white"/>
<path d="M14.3942 33.2878C14.3942 33.2878 23.0473 27.6713 21.0227 15.9727C19.0813 7.47956 14.4496 4.68504 13.9504 3.61655C13.3957 2.84942 12.8688 1.50696 12.8688 1.50696L13.2293 25.1508C13.2571 25.2056 12.5082 32.4111 14.3942 33.2878Z" fill="#499D4A"/>
<path d="M12.3695 33.6165C12.3695 33.6165 4.24337 28.137 4.71485 18.4932C5.18633 8.84934 10.8996 4.10961 12.009 3.2329C12.7578 2.46578 12.7856 2.19181 12.841 1.42468C13.3402 2.49318 13.257 17.4521 13.3125 19.2329C13.5344 26 12.9242 32.3288 12.3695 33.6165Z" fill="white"/>
<path d="M12.3695 33.6165C12.3695 33.6165 4.24337 28.137 4.71485 18.4932C5.18633 8.84934 10.8996 4.10961 12.009 3.2329C12.7578 2.46578 12.7856 2.19181 12.841 1.42468C13.3402 2.49318 13.257 17.4521 13.3125 19.2329C13.5344 26 12.9242 32.3288 12.3695 33.6165Z" fill="#58AA50"/>
</svg>

<svg width="142" height="40" viewBox="0 0 142 40" fill="none" xmlns="http://www.w3.org/2000/svg"><path d="M129.298 16.986c-.111.028-.25.274-.25.439-.028.959-.055 3.48-.055 5.205 0 .055.083.137.138.137.361.027 1.221.055 1.969.055 1.027 0 1.637-.137 1.97-.274.859-.438 1.275-1.37 1.275-2.384 0-2.301-1.636-3.205-4.077-3.205-.138-.055-.61-.055-.97.027zm6.212 10.658c0-2.356-1.747-3.671-4.937-3.671-.138 0-1.164-.028-1.386.027-.083.027-.167.082-.167.137 0 1.699-.027 4.384.056 5.425.055.465.388 1.096.804 1.287.444.247 1.415.274 2.108.274 1.858 0 3.522-1.04 3.522-3.48zM124.361 15.67c.25 0 .971.083 2.829.083 1.747 0 3.162-.055 4.881-.055 2.108 0 4.992.74 4.992 3.835 0 1.535-1.081 2.74-2.496 3.343-.083.027-.083.082 0 .082 2.025.493 3.8 1.726 3.8 4.082 0 2.274-1.442 3.753-3.55 4.658-1.276.548-2.857.74-4.493.74-1.22 0-4.521-.138-6.379-.083-.194-.082.166-.931.333-1.068.444-.028.776-.055 1.22-.192.638-.165.721-.356.832-1.343.056-.822.056-3.78.056-5.89 0-2.877.027-4.85 0-5.78-.028-.74-.278-.987-.832-1.124-.416-.082-1.082-.164-1.637-.247-.111-.137.305-.958.444-1.04zm-13.895 14.822c.582.466 1.72.63 2.718.63 1.304 0 2.607-.246 3.855-1.37 1.276-1.15 2.163-2.904 2.163-5.726 0-2.684-1.026-4.876-3.161-6.164-1.193-.74-2.746-1.041-4.521-1.041-.527 0-1.026.027-1.359.164-.083.055-.25.274-.25.384-.055.466-.055 4.137-.055 6.301 0 2.22 0 5.315.055 5.672.028.356.194.904.555 1.15zm-5.491-14.822c.471 0 2.218.083 3.05.083 1.526 0 2.607-.083 5.464-.083 2.413 0 4.438.63 5.88 1.863 1.747 1.507 2.69 3.562 2.69 6.11 0 3.589-1.664 5.671-3.328 6.85-1.664 1.205-3.827 1.917-6.934 1.917-1.636 0-4.465-.055-6.795-.082h-.027c-.111-.22.194-1.041.388-1.069.638-.082.804-.082 1.109-.219.5-.192.61-.466.666-1.342.083-1.644.055-3.617.055-5.863 0-1.59.028-4.713-.027-5.726-.084-.822-.444-1.041-1.165-1.178a14.628 14.628 0 00-1.526-.247c-.055-.137.389-.877.5-1.014z" fill="#8E714E"/><path d="M75.798 31.425c-.61-.082-1.026-.165-1.58-.411-.084-.055-.195-.274-.195-.384-.055-.822-.055-3.205-.055-4.822 0-1.287-.222-2.41-.777-3.205-.638-.904-1.58-1.425-2.801-1.425-1.054 0-2.496.712-3.661 1.726-.028.027-.222.192-.194-.082 0-.274.055-.795.083-1.15.028-.33-.166-.494-.166-.494-.777.384-2.94.877-3.745.959-.582.11-.72.657-.11.85h.027c.638.191 1.082.41 1.415.63.25.191.221.465.221.657.028 1.78.028 4.52-.055 6.027-.028.603-.194.822-.638.905l.056-.028a8.59 8.59 0 01-1.026.192c-.14.137-.14.904 0 1.068.277 0 1.663-.082 2.828-.082 1.581 0 2.413.082 2.83.082.166-.191.221-.904.11-1.068a5.29 5.29 0 01-1.11-.165c-.443-.082-.554-.3-.582-.821-.055-1.26-.055-3.918-.055-5.754 0-.493.139-.74.277-.877.555-.465 1.443-.822 2.247-.822.776 0 1.276.247 1.664.549.527.438.693 1.04.776 1.506.111 1.014.084 3.041.084 4.822 0 .96-.084 1.178-.444 1.315-.166.082-.61.165-1.11.22-.166.164-.11.904 0 1.068.694 0 1.526-.082 2.719-.082 1.497 0 2.468.082 2.856.082.166-.11.222-.795.111-.986zm6.684-9.096c-1.276 0-2.08.986-2.08 2.493 0 1.562.693 3.342 2.69 3.342.333 0 .97-.137 1.248-.465.472-.439.777-1.288.777-2.192 0-2-.999-3.178-2.635-3.178zm-.166 10.52c-.472 0-.832.137-1.026.274-1.027.63-1.47 1.26-1.47 2 0 .685.277 1.233.832 1.726.693.603 1.664.877 2.884.877 2.468 0 3.55-1.315 3.55-2.603 0-.904-.471-1.506-1.387-1.835-.693-.302-1.913-.439-3.383-.439zm.166 6.192c-1.47 0-2.524-.301-3.439-1.014-.888-.657-1.276-1.67-1.276-2.356 0-.191.056-.712.472-1.178.277-.274.832-.822 2.218-1.753.056-.028.084-.055.084-.083 0-.054-.056-.082-.084-.109-1.137-.438-1.47-1.123-1.58-1.507v-.082c-.028-.137-.084-.274.138-.438l.666-.439c.416-.246.832-.493 1.11-.712.055-.055.055-.082.055-.137 0-.055-.056-.082-.084-.11-1.691-.548-2.523-1.78-2.523-3.643a3.65 3.65 0 011.553-3.014c.665-.52 2.357-1.178 3.467-1.178h.083c1.137.027 1.747.274 2.662.575.472.164.943.247 1.581.247.943 0 1.36-.274 1.692-.63.028.054.083.164.083.465.028.302-.083.767-.305 1.096-.194.274-.638.466-1.054.466h-.11c-.445-.055-.639-.082-.639-.082l-.083.055c-.028.054 0 .082.028.164l.028.055c.055.219.138.849.138 1.013 0 1.946-.804 2.822-1.636 3.452-.832.603-1.747.987-2.829 1.069-.028 0-.11 0-.333.027-.11 0-.277.028-.305.028h-.028c-.194.055-.665.274-.665.685 0 .356.222.794 1.248.849.222.027.444.027.666.055 1.386.082 3.078.219 3.882.466 1.11.41 1.803 1.37 1.803 2.547 0 1.754-1.276 3.398-3.411 4.439-1.11.465-2.136.712-3.273.712zm13.756-16.603c-.499 0-.97.11-1.303.357-.943.575-1.415 1.726-1.415 3.37 0 3.123 1.581 5.315 3.855 5.315.666 0 1.193-.192 1.665-.576.693-.575 1.053-1.726 1.053-3.315 0-3.068-1.58-5.15-3.855-5.15zm.416 10.192c-4.104 0-5.574-2.986-5.574-5.753 0-1.945.804-3.452 2.385-4.52 1.137-.686 2.496-1.07 3.688-1.07 3.135 0 5.326 2.22 5.326 5.398 0 2.164-.86 3.89-2.524 4.931-.777.521-2.164 1.014-3.3 1.014zm-42.96-10.192c-.5 0-.971.11-1.304.357-.943.575-1.414 1.726-1.414 3.37 0 3.123 1.58 5.315 3.855 5.315.665 0 1.192-.192 1.664-.576.693-.575 1.054-1.726 1.054-3.315 0-3.068-1.553-5.15-3.855-5.15zm.444 10.192c-4.105 0-5.575-2.986-5.575-5.753 0-1.945.804-3.452 2.385-4.52 1.137-.686 2.496-1.07 3.689-1.07 3.134 0 5.325 2.22 5.325 5.398 0 2.164-.86 3.89-2.524 4.931-.777.521-2.163 1.014-3.3 1.014zm-27.568-.246c-.056-.083-.084-.274-.084-.548 0-.192.056-.302.084-.356.499-.083.776-.137 1.053-.22.472-.11.666-.383.694-.986.083-1.425.083-4.137.055-6.027v-.055c0-.22 0-.466-.277-.658a5.027 5.027 0 00-1.442-.63c-.222-.082-.36-.192-.333-.329 0-.137.139-.301.471-.356.805-.082 2.857-.575 3.69-.931.054.055.11.192.11.383l-.028.274a8.73 8.73 0 00-.055.877c0 .082.083.164.194.164.055 0 .083-.027.139-.055 1.553-1.178 2.94-1.616 3.66-1.616 1.193 0 2.108.548 2.802 1.699.055.082.083.082.166.082a.153.153 0 00.139-.082c1.414-1.069 2.857-1.726 3.8-1.726 2.246 0 3.577 1.643 3.577 4.438 0 .795 0 1.808-.028 2.74 0 .822-.027 1.589-.027 2.137 0 .11.166.493.443.575.333.165.805.247 1.387.329h.028c.055.164-.056.794-.139.904-.139 0-.36 0-.61-.027a31.746 31.746 0 00-1.83-.055c-1.498 0-2.275.027-3.024.082-.055-.192-.083-.767 0-.904a7.5 7.5 0 00.916-.22c.471-.136.61-.355.638-.986 0-.465.083-4.301-.056-5.232-.139-.96-.86-2.083-2.468-2.083-.61 0-1.553.247-2.469.932-.055.055-.083.164-.083.246v.028c.084.493.084 1.068.084 1.945v1.562c0 1.068-.028 2.082 0 2.822 0 .52.305.63.582.74.139.027.25.054.36.082.222.054.444.082.777.164.056.082.056.41-.028.657-.028.137-.083.22-.083.247-.832-.027-1.664-.055-2.884-.055-.36 0-.999.028-1.526.028-.443 0-.832.027-1.081.027a1.131 1.131 0 01-.083-.466c0-.219.055-.383.083-.438.11-.027.222-.055.333-.055.277-.055.526-.082.776-.137.416-.11.555-.329.583-.85.083-1.177.138-4.602-.028-5.451-.278-1.37-1.082-2.082-2.358-2.082-.748 0-1.692.356-2.468.931-.111.082-.222.329-.222.548v1.397c0 1.726 0 3.863.028 4.795.027.274.11.63.665.74.111.027.306.082.555.082l.444.082c.055.137.028.712-.083.904-.25 0-.527-.027-.86-.027a33.629 33.629 0 00-3.827 0h-.832z" fill="#442D22"/><path d="M13.867 38.11l-.998-.33s.11-4.986-1.692-5.342c-1.193-1.37.194-58.602 4.52-.191 0 0-1.497.74-1.747 2-.277 1.232-.083 3.863-.083 3.863z" fill="#fff"/><path d="M13.867 38.11l-.998-.33s.11-4.986-1.692-5.342c-1.193-1.37.194-58.602 4.52-.191 0 0-1.497.74-1.747 2-.277 1.232-.083 3.863-.083 3.863z" fill="#A6A385"/><path d="M14.394 33.288s8.653-5.617 6.629-17.315C19.08 7.48 14.45 4.685 13.95 3.617c-.554-.768-1.081-2.11-1.081-2.11l.36 23.644c.028.055-.72 7.26 1.165 8.137z" fill="#fff"/><path d="M14.394 33.288s8.653-5.617 6.629-17.315C19.08 7.48 14.45 4.685 13.95 3.617c-.554-.768-1.081-2.11-1.081-2.11l.36 23.644c.028.055-.72 7.26 1.165 8.137z" fill="#499D4A"/><path d="M12.37 33.617s-8.127-5.48-7.655-15.124C5.186 8.85 10.9 4.11 12.009 3.233c.749-.767.777-1.041.832-1.808.5 1.068.416 16.027.472 17.808.221 6.767-.389 13.096-.944 14.384z" fill="#fff"/><path d="M12.37 33.617s-8.127-5.48-7.655-15.124C5.186 8.85 10.9 4.11 12.009 3.233c.749-.767.777-1.041.832-1.808.5 1.068.416 16.027.472 17.808.221 6.767-.389 13.096-.944 14.384z" fill="#58AA50"/></svg>
